svgs/thin/square-n.svg

<svg xmlns="http://www.w3.org/2000/svg" viewBox="0 0 448 512"><!-- Font Awesome Pro 6.0.0-alpha2 by @fontawesome - https://fontawesome.com License - https://fontawesome.com/license (Commercial License) --><path d="M384 32H64C28.654 32 0 60.654 0 96V416C0 451.346 28.654 480 64 480H384C419.346 480 448 451.346 448 416V96C448 60.654 419.346 32 384 32ZM432 416C432 442.467 410.467 464 384 464H64C37.533 464 16 442.467 16 416V96C16 69.533 37.533 48 64 48H384C410.467 48 432 69.533 432 96V416ZM328 128C323.578 128 320 131.578 320 136V354.547L126.047 130.766C123.891 128.25 120.328 127.375 117.203 128.5C114.078 129.672 112 132.656 112 136V376C112 380.422 115.578 384 120 384S128 380.422 128 376V157.453L321.953 381.234C323.5 383.031 325.719 384 328 384C328.938 384 329.891 383.828 330.797 383.5C333.922 382.328 336 379.344 336 376V136C336 131.578 332.422 128 328 128Z"/></svg>

<svg xmlns="http://www.w3.org/2000/svg" viewBox="0 0 448 512"><!--! Font Awesome Pro 6.3.0 by @fontawesome - https://fontawesome.com License - https://fontawesome.com/license (Commercial License) Copyright 2023 Fonticons, Inc. --><path d="M384 32H64C28.65 32 0 60.65 0 96v320c0 35.35 28.65 64 64 64h320c35.35 0 64-28.65 64-64V96C448 60.65 419.3 32 384 32zM432 416c0 26.47-21.53 48-48 48H64c-26.47 0-48-21.53-48-48V96c0-26.47 21.53-48 48-48h320c26.47 0 48 21.53 48 48V416zM328 128C323.6 128 320 131.6 320 136v218.5L126 130.8C123.9 128.3 120.3 127.4 117.2 128.5C114.1 129.7 112 132.7 112 136v240C112 380.4 115.6 384 120 384S128 380.4 128 376V157.5l193.1 223.8C323.5 383 325.7 384 328 384c.9375 0 1.891-.1719 2.797-.5C333.9 382.3 336 379.3 336 376v-240C336 131.6 332.4 128 328 128z"/></svg>
